X: 25376
T: Marcel Martin
R: reel
M: 4/4
K: Emajor
ef|:gfed- dec2-|cBAc B2 ef|gfed- decB-|Bdfg a2 gf|
gfed- de c2-|cBAc B2 ef|gfed- decB-|Bdfd e2 ef:|
|:gfed- de e'2-|e'e d'2 c'4|b4 c'4|g2 gb f2 ef|
gfed- de e'2-|e'e d'2 c'4|b4 g3 g|1 fedf e2 ef:|2 fedf e2||

